X:1
T:Title
%%score ( 1 2 ) { 3 | 4 }
L:1/8
Q:1/4=103
M:4/4
K:Bb
V:1 treble nm="Grand Piano, Soprano"
V:2 treble 
V:3 bass nm="Choir Pad, Faridabad, 87.87 D"
V:4 bass 
V:1
 [DB]2 [EG]2 [DF]>D [DF]>[DB] | [Fd]4 [FB]4 | [FA]2 [EG]2 F2 [DB]2 | [Fd]>c [Fc]>=B c2- [Ec]2 | %4
w: By~John~Robson~Sweney,~1881 * * * * *||||
 [DB]2 [EG]2 [DF]>D [DF]>[DB] | [Fd]4 [FB]4 | [FA]2 [Fc]2 [=Ec]>[GB] [FA]>[EG] | F6 z2 | %8
w: ||||
 [Fe]2 [Fe]2 [Fe]>F [=EG]>[_EA] | [DB]4 [Fd]4 | [^Fd]2 [Fd]2 [Fd]>[Ac] [GB]>[FA] | G2 E2 [EA]4 | %12
w: ||||
 [DB]2 [EG]2 [DF]>D [DF]>[DB] | [Fd]4 [FB]4 | [Gc]2 [EG]2 [Fd]>[Fc] [FB]>[EA] | [DB]8 |] %16
w: ||||
V:2
 x8 | x8 | x8 | z4 F2 z2 | x8 | x8 | x8 | x8 | x8 | x8 | x8 | x8 | x8 | x8 | x8 | x8 |] %16
V:3
 F,2 B,2 B,>F, B,>B, | B,4 D4 | E2 B,2 B,2 B,2 | B,>A, A,>_A, =A,4 | B,2 B,2 B,>F, B,>B, | B,4 D4 | %6
 C2 A,2 G,>C C>B, | A,6 z2 | A,2 A,2 A,>A, B,>C | B,4 B,4 | A,2 A,2 A,>[K:treble]D D>C | B,4 C4 | %12
 B,2 B,2 B,>F, B,>B, | B,4[K:treble] D4 | E2 B,2 B,>E D>C | B,8 |] %16
V:4
 B,,2 B,,2 B,,>B,, B,,>B,, | B,,4 B,,4 | E,2 E,2 D,2 B,,2 | F,2 F,2 F,4 | z2 B,,2 B,,>B,, B,,>B,, | %5
 B,,4 B,,4 | C,2 C,2 C,>C, C,>C, | F,6 z2 | F,2 F,2 F,>F, F,>F, | z4 B,,4 | D,2 D,2 D,>D, D,>D, | %11
 G,4 F,4 | B,,2 B,,2 B,,>B,, B,,>B,, | B,,4 B,,4 | E,2 E,2 F,>F, F,>F, | B,,8 |] %16

